X:6104
T:Slieve Aughty March
O:england
R:March
S:Lucy Farr, Galway (fiddle).
D:Lucy Farr - 'Hearth and Home'
Q:240
M:4/4
K:G
GA |: B2AB AGEG | D2GF GABG | E2c2 BAGB | A2d^c d2DG |
B2AB AGEG | D2GF GABG | E2c2 BAGF |1 G2GF G2DG :|2 G2GF G2GB ||
|: d2Bd gdBd | g2gf gdBd | c2ab agfe | d2d2 d2ef |
g2gf gdBd | c2ab agfe | d2de fdfa |1 g2gf g2Bd :|2 g2gf g2GA ||
